icon-svg/honeywell.svg

<svg xmlns="http://www.w3.org/2000/svg" fill="#44739e" viewBox="0 0 24 24"><path d="M18.7 10.96a1.055 1.055 0 1 0 0 2.1 1.165 1.165 0 0 0 1.007-.55l-.253-.093a.9.9 0 0 1-.754.39.3.3 0 0 1-.285-.307v-.34h1.422a1.3 1.3 0 0 0 .009-.151A1.1 1.1 0 0 0 18.7 10.96m.285.933h-.57v-.374a.285.285 0 1 1 .57 0zm-7.94.916a.3.3 0 0 1-.285-.307v-.34h1.421a1.3 1.3 0 0 0 .009-.151 1.15 1.15 0 1 0-1.145 1.051 1.166 1.166 0 0 0 1.007-.55l-.253-.093a.9.9 0 0 1-.754.39m-.285-1.29a.285.285 0 0 1 .57 0v.374h-.57Zm-4.71-.559a1.055 1.055 0 1 0 0 2.1 1.055 1.055 0 1 0 0-2.1m.285 1.54a.285.285 0 0 1-.57 0v-.983a.285.285 0 0 1 .57 0zm10.497-.355-.385-1.09h-.564L15.5 12.19l-.4-1.135h-1.111l-.4.956-.558-.956h-.945l1.112 1.9-.145.357c-.05.112-.171.118-.194.012a.35.35 0 0 0-.7 0 .52.52 0 0 0 .6.447.712.712 0 0 0 .62-.486l.919-2.222.663 1.87h.6l.369-1.079.379 1.079h.57l.643-1.878H17.2Zm-8.491-.911-.062-.179h-.827v1.878h.827V11.8c0-.246.157-.38.291-.38.112 0 .257.023.257.268v1.241h.827v-1.214a.751.751 0 0 0-1.313-.481m-4.721.045h-.614v-1.05H2v2.704h1.006v-1.341h.614v1.341h1.006v-2.704H3.62Zm17.62-1.05H22v2.704h-.76zm-1.117 0h.76v2.704h-.76z"/></svg>

<?xml version="1.0" encoding="UTF-8"?>
<svg width="24px" fill="#44739e" height="24px" viewBox="0 0 24 24" version="1.1" xmlns="http://www.w3.org/2000/svg" xmlns:xlink="http://www.w3.org/1999/xlink">
            <path d="m 18.7,10.96 a 1.055,1.055 0 1 0 0,2.1 1.165,1.165 0 0 0 1.007,-0.55 L 19.454,12.417 A 0.9,0.9 0 0 1 18.7,12.807 0.3,0.3 0 0 1 18.415,12.5 v -0.34 h 1.422 A 1.262,1.262 0 0 0 19.846,12.009 1.1,1.1 0 0 0 18.7,10.96 Z m 0.285,0.933 h -0.57 v -0.374 a 0.285,0.285 0 1 1 0.57,0 z m -7.94,0.916 A 0.3,0.3 0 0 1 10.76,12.502 v -0.34 h 1.421 a 1.262,1.262 0 0 0 0.009,-0.151 1.15,1.15 0 1 0 -1.145,1.051 1.166,1.166 0 0 0 1.007,-0.55 l -0.253,-0.093 a 0.9,0.9 0 0 1 -0.754,0.39 z m -0.285,-1.29 a 0.285,0.285 0 0 1 0.57,0 v 0.374 H 10.76 Z M 6.05,10.96 a 1.055,1.055 0 1 0 0,2.1 1.055,1.055 0 1 0 0,-2.1 z m 0.285,1.54 a 0.285,0.285 0 0 1 -0.57,0 v -0.983 a 0.285,0.285 0 0 1 0.57,0 z m 10.497,-0.355 -0.385,-1.09 H 15.883 L 15.5,12.19 15.1,11.055 h -1.111 l -0.4,0.956 -0.558,-0.956 h -0.945 l 1.112,1.9 -0.145,0.357 c -0.05,0.112 -0.171,0.118 -0.194,0.012 a 0.35,0.35 0 0 0 -0.7,0 0.52,0.52 0 0 0 0.6,0.447 0.712,0.712 0 0 0 0.62,-0.486 l 0.919,-2.222 0.663,1.87 h 0.6 l 0.369,-1.079 0.379,1.079 h 0.57 l 0.643,-1.878 H 17.2 Z M 8.341,11.234 8.279,11.055 H 7.452 v 1.878 H 8.279 V 11.8 c 0,-0.246 0.157,-0.38 0.291,-0.38 0.112,0 0.257,0.023 0.257,0.268 v 1.241 H 9.654 V 11.715 A 0.751,0.751 0 0 0 8.341,11.234 Z M 3.62,11.279 H 3.006 v -1.05 H 2 v 2.704 H 3.006 V 11.592 H 3.62 v 1.341 H 4.626 V 10.229 H 3.62 Z m 17.62,-1.05 H 22 v 2.704 h -0.76 z m -1.117001,0 h 0.76 v 2.704 h -0.76 z"/>

</svg>
